X: 3
T: The Humours Of Tullycrine
R: hornpipe
M: 4/4
L: 1/8
K: Ador
|:ed|cAAB c3d|eaag e2dB|~c3A ~B3c|d2{e}de dBGB|AGAB c3d|eaag e2dB|cAAc dBGB|A2AGA2:||:(3Bcd|eaag aged|eaag aged|eggf ged2|(3efg(3fga gedB|AGAB c3d|eaag e2dB|cAAc dBGB|A2AGA2:|


Tune 980	Setting 980

